X: 21145
T: Kate From Castleisland
R: reel
M: 4/4
K: Edorian
|:Beed edBA|GABG AGED|Beed edBA|Beed e3d|
Beed edBA|GABG AGEG|DGGA BddB|AGED E3A:|
|:Beef (3gbg fe|dBAF GEE2|Beef (3gbg fe|defd e3d|
Beef (3gbg fe|dBAF GEEF|GFGA BddB|AGED E4:|

